static/cards/FrenchDeck/default/card_clubs_09.svg

<svg width="219" height="304" viewBox="0 0 219 304" fill="none" xmlns="http://www.w3.org/2000/svg">
<g filter="url(#filter0_d_18_643)">
<g clip-path="url(#clip0_18_643)">
<rect x="8" y="4" width="203" height="288" rx="10" fill="white"/>
<path d="M16.9517 39.936C16.9517 39.0352 17.5723 38.4546 18.4331 38.4546C18.9736 38.4546 19.394 38.6948 20.1348 39.4155C21.5962 40.8569 23.0776 41.5176 24.9194 41.5176C29.4438 41.5176 31.7461 37.3735 31.7461 30.1665H31.5659C30.5649 32.8691 28.0024 34.4907 24.7393 34.4907C19.6143 34.4907 16.0508 30.7271 16.0508 25.3218C16.0508 19.7563 19.8345 16.0527 25.52 16.0527C31.7861 16.0527 35.1294 20.9375 35.1294 30.0063C35.1294 39.5557 31.666 44.5205 24.9795 44.5205C22.7773 44.5205 20.6953 43.96 19.1338 42.939C17.7925 42.0581 16.9517 40.937 16.9517 39.936ZM31.1455 25.4019C31.1455 21.6582 28.7832 19.0957 25.3198 19.0957C21.8765 19.0957 19.5142 21.6582 19.5142 25.3818C19.5142 29.0254 21.8364 31.4678 25.3198 31.4678C28.8232 31.4678 31.1455 29.0454 31.1455 25.4019Z" fill="#211C1D"/>
<path d="M24.0324 72C23.815 72 23.6387 71.826 23.6387 71.6115C23.6387 70.8912 24.9316 68.2013 25.1901 66.0959C25.2179 65.8695 24.886 65.7854 24.7639 65.9791C24.0982 67.0359 23.1904 68.515 20.9784 68.4633L20.9355 68.4647C20.9068 68.4656 20.8781 68.4666 20.8492 68.4666C18.4471 68.4666 16.5 66.3541 16.5 63.7483C16.5 61.1425 18.4471 59.03 20.8492 59.03C21.3182 59.03 21.7697 59.1108 22.1928 59.26C22.2915 59.2948 22.3921 59.1811 22.3431 59.0897C21.9682 58.3927 21.7531 57.5823 21.7531 56.717C21.7531 54.1483 23.625 52 26 52C28.375 52 30.2469 54.1483 30.2469 56.717C30.2469 57.5823 30.0318 58.3927 29.6569 59.0897C29.6079 59.1811 29.7085 59.2948 29.8072 59.26C30.2303 59.1108 30.6818 59.03 31.1508 59.03C33.5529 59.03 35.5 61.1425 35.5 63.7483C35.5 66.3541 33.5529 68.4666 31.1508 68.4666C31.1219 68.4666 31.0932 68.4656 31.0645 68.4647L31.0216 68.4633C28.8096 68.515 27.9018 67.0359 27.2361 65.9791C27.114 65.7854 26.7821 65.8695 26.8099 66.0959C27.0684 68.2013 28.3613 70.8913 28.3613 71.6114C28.3613 71.826 28.185 72 27.9676 72H24.0324Z" fill="#211C1D"/>
<path d="M202.048 256.064C202.048 256.965 201.428 257.545 200.567 257.545C200.026 257.545 199.606 257.305 198.865 256.584C197.404 255.143 195.922 254.482 194.081 254.482C189.556 254.482 187.254 258.626 187.254 265.833L187.434 265.833C188.435 263.131 190.998 261.509 194.261 261.509C199.386 261.509 202.949 265.273 202.949 270.678C202.949 276.244 199.166 279.947 193.48 279.947C187.214 279.947 183.871 275.062 183.871 265.994C183.871 256.444 187.334 251.479 194.021 251.479C196.223 251.479 198.305 252.04 199.866 253.061C201.208 253.942 202.048 255.063 202.048 256.064ZM187.854 270.598C187.854 274.342 190.217 276.904 193.68 276.904C197.124 276.904 199.486 274.342 199.486 270.618C199.486 266.975 197.164 264.532 193.68 264.532C190.177 264.532 187.854 266.955 187.854 270.598Z" fill="#211C1D"/>
<path d="M194.968 224C195.185 224 195.361 224.174 195.361 224.389C195.361 225.109 194.068 227.799 193.81 229.904C193.782 230.131 194.114 230.215 194.236 230.021C194.902 228.964 195.81 227.485 198.022 227.537L198.065 227.535C198.093 227.534 198.122 227.533 198.151 227.533C200.553 227.533 202.5 229.646 202.5 232.252C202.5 234.858 200.553 236.97 198.151 236.97C197.682 236.97 197.23 236.889 196.807 236.74C196.708 236.705 196.608 236.819 196.657 236.91C197.032 237.607 197.247 238.418 197.247 239.283C197.247 241.852 195.375 244 193 244C190.625 244 188.753 241.852 188.753 239.283C188.753 238.418 188.968 237.607 189.343 236.91C189.392 236.819 189.292 236.705 189.193 236.74C188.77 236.889 188.318 236.97 187.849 236.97C185.447 236.97 183.5 234.858 183.5 232.252C183.5 229.646 185.447 227.533 187.849 227.533C187.878 227.533 187.907 227.534 187.935 227.535L187.978 227.537C190.19 227.485 191.098 228.964 191.764 230.021C191.886 230.215 192.218 230.131 192.19 229.904C191.932 227.799 190.639 225.109 190.639 224.389C190.639 224.174 190.815 224 191.032 224L194.968 224Z" fill="#211C1D"/>
<path d="M60.84 76C60.325 76 59.9075 75.5825 59.9075 75.0675C59.9075 73.339 62.9696 66.8831 63.5817 61.8301C63.6476 61.2867 62.8615 61.0849 62.5725 61.5498C60.9958 64.0863 58.8456 67.6359 53.6068 67.512L53.5051 67.5152C53.4372 67.5176 53.3693 67.5199 53.3008 67.5199C47.6117 67.5199 43 62.4499 43 56.1959C43 49.9419 47.6117 44.8719 53.3008 44.8719C54.4114 44.8719 55.4808 45.066 56.483 45.4239C56.7167 45.5074 56.9551 45.2346 56.8388 45.0153C55.951 43.3424 55.4416 41.3975 55.4416 39.3209C55.4416 33.156 59.875 28 65.5 28C71.125 28 75.5584 33.156 75.5584 39.3209C75.5584 41.3975 75.049 43.3424 74.1612 45.0153C74.0449 45.2346 74.2833 45.5074 74.517 45.4239C75.5192 45.066 76.5886 44.8719 77.6992 44.8719C83.3883 44.8719 88 49.9419 88 56.1959C88 62.4499 83.3883 67.5199 77.6992 67.5199C77.6307 67.5199 77.5628 67.5176 77.4949 67.5152L77.3932 67.512C72.1544 67.6359 70.0042 64.0863 68.4275 61.5498C68.1385 61.0849 67.3524 61.2867 67.4183 61.8301C68.0304 66.883 71.0925 73.339 71.0925 75.0675C71.0925 75.5825 70.675 76 70.16 76H60.84Z" fill="#211C1D"/>
<path d="M60.84 156C60.325 156 59.9075 156.418 59.9075 156.933C59.9075 158.661 62.9696 165.117 63.5817 170.17C63.6476 170.713 62.8615 170.915 62.5725 170.45C60.9958 167.914 58.8456 164.364 53.6068 164.488L53.5051 164.485C53.4372 164.482 53.3693 164.48 53.3008 164.48C47.6117 164.48 43 169.55 43 175.804C43 182.058 47.6117 187.128 53.3008 187.128C54.4114 187.128 55.4808 186.934 56.483 186.576C56.7167 186.493 56.9551 186.765 56.8388 186.985C55.951 188.658 55.4416 190.603 55.4416 192.679C55.4416 198.844 59.875 204 65.5 204C71.125 204 75.5584 198.844 75.5584 192.679C75.5584 190.603 75.049 188.658 74.1612 186.985C74.0449 186.765 74.2833 186.493 74.517 186.576C75.5192 186.934 76.5886 187.128 77.6992 187.128C83.3883 187.128 88 182.058 88 175.804C88 169.55 83.3883 164.48 77.6992 164.48C77.6307 164.48 77.5628 164.482 77.4949 164.485L77.3932 164.488C72.1544 164.364 70.0042 167.914 68.4275 170.45C68.1385 170.915 67.3524 170.713 67.4183 170.17C68.0304 165.117 71.0925 158.661 71.0925 156.933C71.0925 156.418 70.675 156 70.16 156H60.84Z" fill="#211C1D"/>
<path d="M148.84 76C148.325 76 147.908 75.5825 147.908 75.0675C147.908 73.339 150.97 66.8831 151.582 61.8301C151.648 61.2867 150.862 61.0849 150.573 61.5498C148.996 64.0863 146.846 67.6359 141.607 67.512L141.505 67.5152C141.437 67.5176 141.369 67.5199 141.301 67.5199C135.612 67.5199 131 62.4499 131 56.1959C131 49.9419 135.612 44.8719 141.301 44.8719C142.411 44.8719 143.481 45.066 144.483 45.4239C144.717 45.5074 144.955 45.2346 144.839 45.0153C143.951 43.3424 143.442 41.3975 143.442 39.3209C143.442 33.156 147.875 28 153.5 28C159.125 28 163.558 33.156 163.558 39.3209C163.558 41.3975 163.049 43.3424 162.161 45.0153C162.045 45.2346 162.283 45.5074 162.517 45.4239C163.519 45.066 164.589 44.8719 165.699 44.8719C171.388 44.8719 176 49.9419 176 56.1959C176 62.4499 171.388 67.5199 165.699 67.5199C165.631 67.5199 165.563 67.5176 165.495 67.5152L165.393 67.512C160.154 67.6359 158.004 64.0863 156.427 61.5498C156.138 61.0849 155.352 61.2867 155.418 61.8301C156.03 66.883 159.092 73.339 159.092 75.0675C159.092 75.5825 158.675 76 158.16 76H148.84Z" fill="#211C1D"/>
<path d="M60.84 140C60.325 140 59.9075 139.582 59.9075 139.067C59.9075 137.339 62.9696 130.883 63.5817 125.83C63.6476 125.287 62.8615 125.085 62.5725 125.55C60.9958 128.086 58.8456 131.636 53.6068 131.512L53.5051 131.515C53.4372 131.518 53.3693 131.52 53.3008 131.52C47.6117 131.52 43 126.45 43 120.196C43 113.942 47.6117 108.872 53.3008 108.872C54.4114 108.872 55.4808 109.066 56.483 109.424C56.7167 109.507 56.9551 109.235 56.8388 109.015C55.951 107.342 55.4416 105.397 55.4416 103.321C55.4416 97.156 59.875 92 65.5 92C71.125 92 75.5584 97.156 75.5584 103.321C75.5584 105.397 75.049 107.342 74.1612 109.015C74.0449 109.235 74.2833 109.507 74.517 109.424C75.5192 109.066 76.5886 108.872 77.6992 108.872C83.3883 108.872 88 113.942 88 120.196C88 126.45 83.3883 131.52 77.6992 131.52C77.6307 131.52 77.5628 131.518 77.4949 131.515L77.3932 131.512C72.1544 131.636 70.0042 128.086 68.4275 125.55C68.1385 125.085 67.3524 125.287 67.4183 125.83C68.0304 130.883 71.0925 137.339 71.0925 139.067C71.0925 139.582 70.675 140 70.16 140H60.84Z" fill="#211C1D"/>
<path d="M60.84 220C60.325 220 59.9075 220.418 59.9075 220.933C59.9075 222.661 62.9696 229.117 63.5817 234.17C63.6476 234.713 62.8615 234.915 62.5725 234.45C60.9958 231.914 58.8456 228.364 53.6068 228.488L53.5051 228.485C53.4372 228.482 53.3693 228.48 53.3008 228.48C47.6117 228.48 43 233.55 43 239.804C43 246.058 47.6117 251.128 53.3008 251.128C54.4114 251.128 55.4808 250.934 56.483 250.576C56.7167 250.493 56.9551 250.765 56.8388 250.985C55.951 252.658 55.4416 254.603 55.4416 256.679C55.4416 262.844 59.875 268 65.5 268C71.125 268 75.5584 262.844 75.5584 256.679C75.5584 254.603 75.049 252.658 74.1612 250.985C74.0449 250.765 74.2833 250.493 74.517 250.576C75.5192 250.934 76.5886 251.128 77.6992 251.128C83.3883 251.128 88 246.058 88 239.804C88 233.55 83.3883 228.48 77.6992 228.48C77.6307 228.48 77.5628 228.482 77.4949 228.485L77.3932 228.488C72.1544 228.364 70.0042 231.914 68.4275 234.45C68.1385 234.915 67.3524 234.713 67.4183 234.17C68.0304 229.117 71.0925 222.661 71.0925 220.933C71.0925 220.418 70.675 220 70.16 220H60.84Z" fill="#211C1D"/>
<path d="M148.84 140C148.325 140 147.908 139.582 147.908 139.067C147.908 137.339 150.97 130.883 151.582 125.83C151.648 125.287 150.862 125.085 150.573 125.55C148.996 128.086 146.846 131.636 141.607 131.512L141.505 131.515C141.437 131.518 141.369 131.52 141.301 131.52C135.612 131.52 131 126.45 131 120.196C131 113.942 135.612 108.872 141.301 108.872C142.411 108.872 143.481 109.066 144.483 109.424C144.717 109.507 144.955 109.235 144.839 109.015C143.951 107.342 143.442 105.397 143.442 103.321C143.442 97.156 147.875 92 153.5 92C159.125 92 163.558 97.156 163.558 103.321C163.558 105.397 163.049 107.342 162.161 109.015C162.045 109.235 162.283 109.507 162.517 109.424C163.519 109.066 164.589 108.872 165.699 108.872C171.388 108.872 176 113.942 176 120.196C176 126.45 171.388 131.52 165.699 131.52C165.631 131.52 165.563 131.518 165.495 131.515L165.393 131.512C160.154 131.636 158.004 128.086 156.427 125.55C156.138 125.085 155.352 125.287 155.418 125.83C156.03 130.883 159.092 137.339 159.092 139.067C159.092 139.582 158.675 140 158.16 140H148.84Z" fill="#211C1D"/>
<path d="M104.84 172C104.325 172 103.908 171.582 103.908 171.067C103.908 169.339 106.97 162.883 107.582 157.83C107.648 157.287 106.862 157.085 106.573 157.55C104.996 160.086 102.846 163.636 97.6068 163.512L97.5051 163.515C97.4372 163.518 97.3693 163.52 97.3008 163.52C91.6117 163.52 87 158.45 87 152.196C87 145.942 91.6117 140.872 97.3008 140.872C98.4114 140.872 99.4808 141.066 100.483 141.424C100.717 141.507 100.955 141.235 100.839 141.015C99.951 139.342 99.4416 137.397 99.4416 135.321C99.4416 129.156 103.875 124 109.5 124C115.125 124 119.558 129.156 119.558 135.321C119.558 137.397 119.049 139.342 118.161 141.015C118.045 141.235 118.283 141.507 118.517 141.424C119.519 141.066 120.589 140.872 121.699 140.872C127.388 140.872 132 145.942 132 152.196C132 158.45 127.388 163.52 121.699 163.52C121.631 163.52 121.563 163.518 121.495 163.515L121.393 163.512C116.154 163.636 114.004 160.086 112.427 157.55C112.138 157.085 111.352 157.287 111.418 157.83C112.03 162.883 115.092 169.339 115.092 171.067C115.092 171.582 114.675 172 114.16 172H104.84Z" fill="#211C1D"/>
<path d="M148.84 220C148.325 220 147.908 220.418 147.908 220.933C147.908 222.661 150.97 229.117 151.582 234.17C151.648 234.713 150.862 234.915 150.573 234.45C148.996 231.914 146.846 228.364 141.607 228.488L141.505 228.485C141.437 228.482 141.369 228.48 141.301 228.48C135.612 228.48 131 233.55 131 239.804C131 246.058 135.612 251.128 141.301 251.128C142.411 251.128 143.481 250.934 144.483 250.576C144.717 250.493 144.955 250.765 144.839 250.985C143.951 252.658 143.442 254.603 143.442 256.679C143.442 262.844 147.875 268 153.5 268C159.125 268 163.558 262.844 163.558 256.679C163.558 254.603 163.049 252.658 162.161 250.985C162.045 250.765 162.283 250.493 162.517 250.576C163.519 250.934 164.589 251.128 165.699 251.128C171.388 251.128 176 246.058 176 239.804C176 233.55 171.388 228.48 165.699 228.48C165.631 228.48 165.563 228.482 165.495 228.485L165.393 228.488C160.154 228.364 158.004 231.914 156.427 234.45C156.138 234.915 155.352 234.713 155.418 234.17C156.03 229.117 159.092 222.661 159.092 220.933C159.092 220.418 158.675 220 158.16 220H148.84Z" fill="#211C1D"/>
<path d="M148.84 156C148.325 156 147.908 156.418 147.908 156.933C147.908 158.661 150.97 165.117 151.582 170.17C151.648 170.713 150.862 170.915 150.573 170.45C148.996 167.914 146.846 164.364 141.607 164.488L141.505 164.485C141.437 164.482 141.369 164.48 141.301 164.48C135.612 164.48 131 169.55 131 175.804C131 182.058 135.612 187.128 141.301 187.128C142.411 187.128 143.481 186.934 144.483 186.576C144.717 186.493 144.955 186.765 144.839 186.985C143.951 188.658 143.442 190.603 143.442 192.679C143.442 198.844 147.875 204 153.5 204C159.125 204 163.558 198.844 163.558 192.679C163.558 190.603 163.049 188.658 162.161 186.985C162.045 186.765 162.283 186.493 162.517 186.576C163.519 186.934 164.589 187.128 165.699 187.128C171.388 187.128 176 182.058 176 175.804C176 169.55 171.388 164.48 165.699 164.48C165.631 164.48 165.563 164.482 165.495 164.485L165.393 164.488C160.154 164.364 158.004 167.914 156.427 170.45C156.138 170.915 155.352 170.713 155.418 170.17C156.03 165.117 159.092 158.661 159.092 156.933C159.092 156.418 158.675 156 158.16 156H148.84Z" fill="#211C1D"/>
</g>
</g>
<defs>
<filter id="filter0_d_18_643" x="0" y="0" width="219" height="304" filterUnits="userSpaceOnUse" color-interpolation-filters="sRGB">
<feFlood flood-opacity="0" result="BackgroundImageFix"/>
<feColorMatrix in="SourceAlpha" type="matrix" values="0 0 0 0 0 0 0 0 0 0 0 0 0 0 0 0 0 0 127 0" result="hardAlpha"/>
<feOffset dy="4"/>
<feGaussianBlur stdDeviation="4"/>
<feComposite in2="hardAlpha" operator="out"/>
<feColorMatrix type="matrix" values="0 0 0 0 0.614771 0 0 0 0 0.70094 0 0 0 0 0.806257 0 0 0 1 0"/>
<feBlend mode="normal" in2="BackgroundImageFix" result="effect1_dropShadow_18_643"/>
<feBlend mode="normal" in="SourceGraphic" in2="effect1_dropShadow_18_643" result="shape"/>
</filter>
<clipPath id="clip0_18_643">
<rect x="8" y="4" width="203" height="288" rx="10" fill="white"/>
</clipPath>
</defs>
</svg>

<svg xmlns="http://www.w3.org/2000/svg" width="219" height="304" fill="none" viewBox="0 0 219 304"><g filter="url(#a)"><g clip-path="url(#b)"><rect width="203" height="288" x="8" y="4" fill="#fff" rx="10"/><path fill="#211c1d" d="M16.952 39.936c0-.9.62-1.481 1.481-1.481.54 0 .961.24 1.702.96 1.461 1.442 2.943 2.103 4.784 2.103 4.525 0 6.827-4.145 6.827-11.352h-.18c-1.001 2.703-3.564 4.325-6.827 4.325-5.125 0-8.688-3.764-8.688-9.17 0-5.565 3.784-9.268 9.469-9.268 6.266 0 9.61 4.884 9.61 13.953 0 9.55-3.464 14.514-10.15 14.514-2.203 0-4.285-.56-5.846-1.581-1.341-.88-2.182-2.002-2.182-3.003m14.193-14.534c0-3.744-2.362-6.306-5.825-6.306-3.443 0-5.806 2.562-5.806 6.286 0 3.643 2.322 6.086 5.806 6.086 3.503 0 5.825-2.423 5.825-6.066M24.032 72a.39.39 0 0 1-.393-.388c0-.72 1.293-3.41 1.551-5.516.028-.227-.304-.31-.426-.117-.666 1.057-1.574 2.536-3.786 2.484l-.043.002-.086.002c-2.402 0-4.349-2.113-4.349-4.719 0-2.605 1.947-4.718 4.35-4.718.468 0 .92.08 1.343.23.098.035.2-.079.15-.17a5 5 0 0 1-.59-2.373C21.753 54.148 23.625 52 26 52s4.247 2.148 4.247 4.717a5 5 0 0 1-.59 2.373c-.05.091.052.205.15.17a4 4 0 0 1 1.344-.23c2.402 0 4.349 2.112 4.349 4.718s-1.947 4.719-4.35 4.719l-.085-.002-.043-.002c-2.212.052-3.12-1.427-3.786-2.484-.122-.194-.454-.11-.426.117.258 2.105 1.551 4.795 1.551 5.515a.39.39 0 0 1-.393.389zM202.048 256.064c0 .901-.62 1.481-1.481 1.481-.541 0-.961-.24-1.702-.961-1.461-1.441-2.943-2.102-4.784-2.102-4.525 0-6.827 4.144-6.827 11.351h.18c1.001-2.702 3.564-4.324 6.827-4.324 5.125 0 8.688 3.764 8.688 9.169 0 5.566-3.783 9.269-9.469 9.269-6.266 0-9.609-4.885-9.609-13.953 0-9.55 3.463-14.515 10.15-14.515 2.202 0 4.284.561 5.845 1.582 1.342.881 2.182 2.002 2.182 3.003m-14.194 14.534c0 3.744 2.363 6.306 5.826 6.306 3.444 0 5.806-2.562 5.806-6.286 0-3.643-2.322-6.086-5.806-6.086-3.503 0-5.826 2.423-5.826 6.066M194.968 224a.39.39 0 0 1 .393.389c0 .72-1.293 3.41-1.551 5.515-.028.227.304.311.426.117.666-1.057 1.574-2.536 3.786-2.484l.043-.002.086-.002c2.402 0 4.349 2.113 4.349 4.719s-1.947 4.718-4.349 4.718c-.469 0-.921-.081-1.344-.23-.099-.035-.199.079-.15.17.375.697.59 1.508.59 2.373 0 2.569-1.872 4.717-4.247 4.717s-4.247-2.148-4.247-4.717c0-.865.215-1.676.59-2.373.049-.091-.051-.205-.15-.17-.423.149-.875.23-1.344.23-2.402 0-4.349-2.112-4.349-4.718s1.947-4.719 4.349-4.719l.086.002.043.002c2.212-.052 3.12 1.427 3.786 2.484.122.194.454.11.426-.117-.258-2.105-1.551-4.795-1.551-5.515a.39.39 0 0 1 .393-.389zM60.84 76a.933.933 0 0 1-.933-.933c0-1.728 3.063-8.184 3.675-13.237.066-.543-.72-.745-1.01-.28-1.576 2.536-3.726 6.086-8.965 5.962l-.102.003-.204.005C47.61 67.52 43 62.45 43 56.196s4.612-11.324 10.3-11.324c1.111 0 2.18.194 3.183.552.234.083.472-.19.356-.409a12.1 12.1 0 0 1-1.397-5.694C55.442 33.156 59.875 28 65.5 28s10.058 5.156 10.058 11.32c0 2.078-.509 4.022-1.397 5.695-.116.22.122.492.356.409a9.4 9.4 0 0 1 3.182-.552c5.69 0 10.301 5.07 10.301 11.324S83.388 67.52 77.7 67.52q-.104 0-.205-.005l-.102-.003c-5.239.124-7.389-3.426-8.966-5.962-.289-.465-1.075-.263-1.009.28.612 5.053 3.674 11.509 3.674 13.237a.933.933 0 0 1-.932.933zM60.84 156a.933.933 0 0 0-.933.933c0 1.728 3.063 8.184 3.675 13.237.066.543-.72.745-1.01.28-1.576-2.536-3.726-6.086-8.965-5.962l-.102-.003a5 5 0 0 0-.204-.005c-5.69 0-10.301 5.07-10.301 11.324s4.612 11.324 10.3 11.324c1.111 0 2.18-.194 3.183-.552.234-.083.472.189.356.409a12.1 12.1 0 0 0-1.397 5.694c0 6.165 4.433 11.321 10.058 11.321s10.058-5.156 10.058-11.321c0-2.076-.509-4.021-1.397-5.694-.116-.22.122-.492.356-.409a9.4 9.4 0 0 0 3.182.552c5.69 0 10.301-5.07 10.301-11.324s-4.612-11.324-10.3-11.324a5 5 0 0 0-.205.005l-.102.003c-5.239-.124-7.389 3.426-8.966 5.962-.289.465-1.075.263-1.009-.28.612-5.053 3.674-11.509 3.674-13.237a.933.933 0 0 0-.932-.933zM148.84 76a.93.93 0 0 1-.932-.933c0-1.728 3.062-8.184 3.674-13.237.066-.543-.72-.745-1.009-.28-1.577 2.536-3.727 6.086-8.966 5.962l-.102.003-.204.005c-5.689 0-10.301-5.07-10.301-11.324s4.612-11.324 10.301-11.324c1.11 0 2.18.194 3.182.552.234.083.472-.19.356-.409a12.1 12.1 0 0 1-1.397-5.694c0-6.165 4.433-11.321 10.058-11.321s10.058 5.156 10.058 11.32c0 2.078-.509 4.022-1.397 5.695-.116.22.122.492.356.409a9.4 9.4 0 0 1 3.182-.552c5.689 0 10.301 5.07 10.301 11.324s-4.612 11.324-10.301 11.324q-.102 0-.204-.005l-.102-.003c-5.239.124-7.389-3.426-8.966-5.962-.289-.465-1.075-.263-1.009.28.612 5.053 3.674 11.509 3.674 13.237a.93.93 0 0 1-.932.933zM60.84 140a.933.933 0 0 1-.933-.933c0-1.728 3.063-8.184 3.675-13.237.066-.543-.72-.745-1.01-.28-1.576 2.536-3.726 6.086-8.965 5.962l-.102.003a5 5 0 0 1-.204.005c-5.69 0-10.301-5.07-10.301-11.324s4.612-11.324 10.3-11.324c1.111 0 2.18.194 3.183.552.234.083.472-.189.356-.409a12.1 12.1 0 0 1-1.397-5.694C55.442 97.156 59.875 92 65.5 92s10.058 5.156 10.058 11.321c0 2.076-.509 4.021-1.397 5.694-.116.22.122.492.356.409a9.4 9.4 0 0 1 3.182-.552c5.69 0 10.301 5.07 10.301 11.324s-4.612 11.324-10.3 11.324a5 5 0 0 1-.205-.005l-.102-.003c-5.239.124-7.389-3.426-8.966-5.962-.289-.465-1.075-.263-1.009.28.612 5.053 3.674 11.509 3.674 13.237a.933.933 0 0 1-.932.933zM60.84 220a.933.933 0 0 0-.933.933c0 1.728 3.063 8.184 3.675 13.237.066.543-.72.745-1.01.28-1.576-2.536-3.726-6.086-8.965-5.962l-.102-.003a5 5 0 0 0-.204-.005c-5.69 0-10.301 5.07-10.301 11.324s4.612 11.324 10.3 11.324c1.111 0 2.18-.194 3.183-.552.234-.083.472.189.356.409a12.1 12.1 0 0 0-1.397 5.694c0 6.165 4.433 11.321 10.058 11.321s10.058-5.156 10.058-11.321c0-2.076-.509-4.021-1.397-5.694-.116-.22.122-.492.356-.409a9.4 9.4 0 0 0 3.182.552c5.69 0 10.301-5.07 10.301-11.324s-4.612-11.324-10.3-11.324a5 5 0 0 0-.205.005l-.102.003c-5.239-.124-7.389 3.426-8.966 5.962-.289.465-1.075.263-1.009-.28.612-5.053 3.674-11.509 3.674-13.237a.933.933 0 0 0-.932-.933zM148.84 140a.933.933 0 0 1-.932-.933c0-1.728 3.062-8.184 3.674-13.237.066-.543-.72-.745-1.009-.28-1.577 2.536-3.727 6.086-8.966 5.962l-.102.003a5 5 0 0 1-.204.005c-5.689 0-10.301-5.07-10.301-11.324s4.612-11.324 10.301-11.324c1.11 0 2.18.194 3.182.552.234.083.472-.189.356-.409a12.1 12.1 0 0 1-1.397-5.694c0-6.165 4.433-11.321 10.058-11.321s10.058 5.156 10.058 11.321c0 2.076-.509 4.021-1.397 5.694-.116.22.122.492.356.409a9.4 9.4 0 0 1 3.182-.552c5.689 0 10.301 5.07 10.301 11.324s-4.612 11.324-10.301 11.324q-.102 0-.204-.005l-.102-.003c-5.239.124-7.389-3.426-8.966-5.962-.289-.465-1.075-.263-1.009.28.612 5.053 3.674 11.509 3.674 13.237a.933.933 0 0 1-.932.933zM104.84 172a.933.933 0 0 1-.932-.933c0-1.728 3.062-8.184 3.674-13.237.066-.543-.72-.745-1.009-.28-1.577 2.536-3.727 6.086-8.966 5.962l-.102.003a5 5 0 0 1-.204.005c-5.69 0-10.301-5.07-10.301-11.324s4.612-11.324 10.3-11.324c1.111 0 2.18.194 3.183.552.234.083.472-.189.356-.409a12.1 12.1 0 0 1-1.397-5.694c0-6.165 4.433-11.321 10.058-11.321s10.058 5.156 10.058 11.321c0 2.076-.509 4.021-1.397 5.694-.116.22.122.492.356.409a9.4 9.4 0 0 1 3.182-.552c5.689 0 10.301 5.07 10.301 11.324s-4.612 11.324-10.301 11.324q-.102 0-.204-.005l-.102-.003c-5.239.124-7.389-3.426-8.966-5.962-.289-.465-1.075-.263-1.009.28.612 5.053 3.674 11.509 3.674 13.237a.933.933 0 0 1-.932.933zM148.84 220a.933.933 0 0 0-.932.933c0 1.728 3.062 8.184 3.674 13.237.066.543-.72.745-1.009.28-1.577-2.536-3.727-6.086-8.966-5.962l-.102-.003a5 5 0 0 0-.204-.005c-5.689 0-10.301 5.07-10.301 11.324s4.612 11.324 10.301 11.324c1.11 0 2.18-.194 3.182-.552.234-.083.472.189.356.409a12.1 12.1 0 0 0-1.397 5.694c0 6.165 4.433 11.321 10.058 11.321s10.058-5.156 10.058-11.321c0-2.076-.509-4.021-1.397-5.694-.116-.22.122-.492.356-.409a9.4 9.4 0 0 0 3.182.552c5.689 0 10.301-5.07 10.301-11.324s-4.612-11.324-10.301-11.324q-.102 0-.204.005l-.102.003c-5.239-.124-7.389 3.426-8.966 5.962-.289.465-1.075.263-1.009-.28.612-5.053 3.674-11.509 3.674-13.237a.933.933 0 0 0-.932-.933zM148.84 156a.933.933 0 0 0-.932.933c0 1.728 3.062 8.184 3.674 13.237.066.543-.72.745-1.009.28-1.577-2.536-3.727-6.086-8.966-5.962l-.102-.003a5 5 0 0 0-.204-.005c-5.689 0-10.301 5.07-10.301 11.324s4.612 11.324 10.301 11.324c1.11 0 2.18-.194 3.182-.552.234-.083.472.189.356.409a12.1 12.1 0 0 0-1.397 5.694c0 6.165 4.433 11.321 10.058 11.321s10.058-5.156 10.058-11.321c0-2.076-.509-4.021-1.397-5.694-.116-.22.122-.492.356-.409a9.4 9.4 0 0 0 3.182.552c5.689 0 10.301-5.07 10.301-11.324s-4.612-11.324-10.301-11.324q-.102 0-.204.005l-.102.003c-5.239-.124-7.389 3.426-8.966 5.962-.289.465-1.075.263-1.009-.28.612-5.053 3.674-11.509 3.674-13.237a.933.933 0 0 0-.932-.933z"/></g></g><defs><clipPath id="b"><rect width="203" height="288" x="8" y="4" fill="#fff" rx="10"/></clipPath><filter id="a" width="219" height="304" x="0" y="0" color-interpolation-filters="sRGB" filterUnits="userSpaceOnUse"><feFlood flood-opacity="0" result="BackgroundImageFix"/><feColorMatrix in="SourceAlpha" result="hardAlpha" values="0 0 0 0 0 0 0 0 0 0 0 0 0 0 0 0 0 0 127 0"/><feOffset dy="4"/><feGaussianBlur stdDeviation="4"/><feComposite in2="hardAlpha" operator="out"/><feColorMatrix values="0 0 0 0 0.614771 0 0 0 0 0.70094 0 0 0 0 0.806257 0 0 0 1 0"/><feBlend in2="BackgroundImageFix" result="effect1_dropShadow_18_643"/><feBlend in="SourceGraphic" in2="effect1_dropShadow_18_643" result="shape"/></filter></defs></svg>
